!!!!SEGMENT: pl-sa--l-1636--074_anonim--kyrie-paschalis-primum.krn
!!!cenid: 17xx:781
!!!COM: Anonim
!!!COM-rismid: pe30004985
!!!CDT:
!!!CNT:
!!!OTL: Kyrie paschalis primum
!!!PDT:
!!!AGN: Sacred
!!!SMS-siglum: PL-SA
!!!SMS-shelfmark: L 1636
!!!SMS-shelfwork: 074 W
!!!SMS-variant:
!!!SMS-altvar:
!!!NIFC-rismid: 1001076918
!!!URL-scan: http://repozytorium.nifc.pl/skany/pl-sa-nut--l1636
!!!ONB-nifc: 22r, skan 0025, s. 7-8
!!!AIN: 1 empty
!!!key:
**kern	**kern
*part1	*part1
*staff2	*staff1
*Iempty	*Iempty
*I"[Keyboard]	*
*I'keyb	*
*clefC4	*clefC1
*k[]	*k[]
*C:	*C:
*M2/2	*M2/2
*met(c|)	*met(c|)
=1	=1
*2\right	*2\right
*^	*^
!LO:TX:a:i:t=Kyrie Paschale primum	!	!	!
2d 2B/	2G\	2g/	2ryy
2d 2A/	2D\	2a/	2f\
=2	=2	=2	=2
2c 2G/	2C\	2cc 2g/	2e\
2d 2A/	2D\	4.a/	2f\
.	.	8b/	.
=3	=3	=3	=3
2c 2G/	2C\	2cc 2g/	2e\
2c 2A/	2F\	8a/L	2r
.	.	8g/	.
.	.	8a/	.
.	.	8b/J	.
*	*	*v	*v
=4	=4	=4
1c	1E	2cc/
.	.	2g/
=5	=5	=5
*	*	*^
4c/	2D\	2f/	2ryy
4B/	.	.	.
2c 2G/	2C\	2g/	2e\
*v	*v	*	*
=6	=6	=6
4.D/	2a 2f#X/	2d\
8C/	.	.
4BB/	2b 2g/	2d\
8AA/L	.	.
8GG/J	.	.
=7	=7	=7
*clefF4	*	*
*^	*	*
2AA/	2ryy	2cc 2a/	4e\
.	.	.	4f\
4GG/	4ryy	2b/	2g\
4d/	4G\	.	.
*	*	*v	*v
!!LO:LB:g=original
=8	=8	=8
2d/	4G\	2a/
.	4F\	.
8B/L	2E\	2g/
8A/	.	.
8B/	.	.
8c/J	.	.
=9	=9	=9
4d/	1D	4f#X/
8c/L	.	2g/
8B/J	.	.
2A/	.	.
.	.	4f#X/
=10	=10	=10
2G/	1GG	4g/
.	.	8dd\L
.	.	8cc\J
8G/L	.	8b\L
8F/	.	8a\J
8E/	.	8g\L
8D/J	.	16a\L
.	.	16b\JJ
=11	=11	=11
*	*^	*^
1G	2C\	2E/	2cc/	1g
.	2BB\	2D/	2dd/	.
*	*v	*v	*	*
=12	=12	=12	=12
1G	1E 1C	1ee 1cc	1g
=13	=13	=13	=13
1G	1D 1BB 1GG	1dd 1b	1g
*v	*v	*	*
*	*v	*v
!LO:TX:a:t=P:||:problem=w źródle końcowa kreska taktowa 	!LO:TX:a:t=P:||:problem=w źródle końcowa kreska taktowa 
==	==
*-	*-
!!!system-decoration: s1,s2
!!!EED: Antoni Szymański
!!!EST: 2020-12-08
!!!ENC: Tomasz Grochalski
!!!END: 2020-06-12
